packages/trnavka-theme/public/images/church.svg

<?xml version="1.0" encoding="UTF-8" standalone="no"?>
<!DOCTYPE svg PUBLIC "-//W3C//DTD SVG 1.1//EN" "http://www.w3.org/Graphics/SVG/1.1/DTD/svg11.dtd">
<svg width="100%" height="100%" viewBox="0 0 48 48" version="1.1" xmlns="http://www.w3.org/2000/svg" xmlns:xlink="http://www.w3.org/1999/xlink" xml:space="preserve" xmlns:serif="http://www.serif.com/" style="fill-rule:evenodd;clip-rule:evenodd;stroke-linejoin:round;stroke-miterlimit:2;">
    <rect id="Artboard1" x="0" y="0" width="48" height="48" style="fill:none;"/>
    <g id="Artboard11" serif:id="Artboard1">
        <g>
            <path d="M44.129,47.226L44.129,33.29L24,25.548L3.871,33.29L3.871,47.226L44.129,47.226Z" style="fill:rgb(236,236,236);fill-rule:nonzero;"/>
            <path d="M44.129,33.634L33.29,29.419L14.71,29.419L3.871,33.634L3.871,37.505L14.71,33.29L33.29,33.29L44.129,37.505L44.129,33.634Z" style="fill:rgb(255,215,212);fill-rule:nonzero;"/>
            <path d="M14.71,30.968L0.774,36.387L0.774,32.516L14.71,27.097L33.29,27.097L47.226,32.516L47.226,36.387L33.29,30.968L14.71,30.968Z" style="fill:rgb(255,215,212);fill-rule:nonzero;"/>
            <path d="M33.29,47.226L33.29,21.677L24,16.258L14.71,21.677L14.71,47.226L33.29,47.226Z" style="fill:rgb(236,236,236);fill-rule:nonzero;"/>
            <path d="M14.71,21.832L14.71,25.703L24,20.129L33.29,25.703L33.29,21.832L25.291,17.032L22.709,17.032L14.71,21.832Z" style="fill:rgb(255,215,212);fill-rule:nonzero;"/>
            <rect x="3.871" y="44.903" width="40.258" height="2.322" style="fill:rgb(255,194,192);fill-rule:nonzero;"/>
            <path d="M24,31.742C21.434,31.742 19.355,33.821 19.355,36.387L19.355,47.226L28.645,47.226L28.645,36.387C28.645,33.821 26.566,31.742 24,31.742Z" style="fill:rgb(255,215,212);fill-rule:nonzero;"/>
            <rect x="19.355" y="44.903" width="9.29" height="2.323" style="fill:rgb(255,194,192);fill-rule:nonzero;"/>
            <rect x="36.387" y="39.484" width="4.645" height="7.742" style="fill:rgb(255,215,212);fill-rule:nonzero;"/>
            <rect x="6.968" y="39.484" width="4.645" height="7.742" style="fill:rgb(255,215,212);fill-rule:nonzero;"/>
            <rect x="36.387" y="44.903" width="4.645" height="2.323" style="fill:rgb(255,194,192);fill-rule:nonzero;"/>
            <rect x="6.968" y="44.903" width="4.645" height="2.323" style="fill:rgb(255,194,192);fill-rule:nonzero;"/>
            <rect x="19.355" y="24" width="9.29" height="3.097" style="fill:rgb(255,187,185);fill-rule:nonzero;"/>
            <path d="M25.291,14.71L22.709,14.71L12.387,20.903L12.387,24.774L24,17.806L35.613,24.774L35.613,20.903L25.291,14.71Z" style="fill:rgb(255,215,212);fill-rule:nonzero;"/>
            <path d="M25.548,14.71L25.548,6.968L28.645,6.968L28.645,3.871L25.548,3.871L25.548,0.774L22.452,0.774L22.452,3.871L19.355,3.871L19.355,6.968L22.452,6.968L22.452,14.71L25.548,14.71Z" style="fill:rgb(255,241,241);fill-rule:nonzero;"/>
            <rect x="22.452" y="12.387" width="3.097" height="2.323" style="fill:rgb(255,215,212);fill-rule:nonzero;"/>
            <path d="M29.419,23.226L18.581,23.226L18.581,27.871L29.419,27.871L29.419,23.226ZM20.129,24.774L23.226,24.774L23.226,26.323L20.129,26.323L20.129,24.774ZM27.871,26.323L24.774,26.323L24.774,24.774L27.871,24.774L27.871,26.323Z" style="fill:rgb(242,80,76);fill-rule:nonzero;"/>
            <path d="M48,37.519L48,31.987L34.065,26.567L34.065,24.748L36.387,26.141L36.387,20.464L26.323,14.426L26.323,7.742L29.419,7.742L29.419,3.097L26.323,3.097L26.323,0L21.677,0L21.677,3.097L18.581,3.097L18.581,7.742L21.677,7.742L21.677,14.426L11.613,20.465L11.613,26.142L13.935,24.749L13.935,26.568L0,31.987L0,37.52L3.097,36.315L3.097,46.452L0,46.452L0,48L48,48L48,46.452L44.903,46.452L44.903,36.314L48,37.519ZM46.452,33.046L46.452,35.255L34.065,30.438L34.065,28.229L46.452,33.046ZM20.129,6.194L20.129,4.645L23.226,4.645L23.226,1.548L24.774,1.548L24.774,4.645L27.871,4.645L27.871,6.194L24.774,6.194L24.774,13.935L23.226,13.935L23.226,6.194L20.129,6.194ZM13.161,21.341L22.924,15.484L25.076,15.484L34.839,21.341L34.839,23.406L24,16.903L13.161,23.406L13.161,21.341ZM24,18.709L32.516,23.819L32.516,46.452L29.419,46.452L29.419,36.387C29.419,33.399 26.988,30.968 24,30.968C21.012,30.968 18.581,33.399 18.581,36.387L18.581,46.452L15.484,46.452L15.484,23.819L24,18.709ZM23.226,46.452L20.129,46.452L20.129,36.387C20.129,34.518 21.461,32.954 23.226,32.594L23.226,46.452ZM24.774,32.594C26.539,32.954 27.871,34.517 27.871,36.387L27.871,46.452L24.774,46.452L24.774,32.594ZM1.548,33.046L13.935,28.229L13.935,30.438L1.548,35.255L1.548,33.046ZM4.645,35.713L13.935,32.1L13.935,46.452L12.387,46.452L12.387,38.71L6.194,38.71L6.194,46.452L4.645,46.452L4.645,35.713ZM10.839,46.452L7.742,46.452L7.742,40.258L10.839,40.258L10.839,46.452ZM40.258,46.452L37.161,46.452L37.161,40.258L40.258,40.258L40.258,46.452ZM43.355,46.452L41.806,46.452L41.806,38.71L35.613,38.71L35.613,46.452L34.065,46.452L34.065,32.1L43.355,35.713L43.355,46.452Z" style="fill:rgb(242,80,76);fill-rule:nonzero;"/>
        </g>
    </g>
</svg>

<svg viewBox="0 0 48 48"
     xmlns="http://www.w3.org/2000/svg">
    <path fill="#50b6b1" d="M29.42 23.23H18.58v4.64h10.84zm-9.29 1.55h3.1v1.55h-3.1zm7.74 1.55h-3.1v-1.55h3.1zM48 37.52v-5.53l-13.94-5.42v-1.82l2.32 1.39v-5.68l-10.06-6.04V7.74h3.1V3.1h-3.1V0h-4.65v3.1h-3.1v4.64h3.1v6.68l-10.06 6.04v5.68l2.32-1.39v1.82L0 31.99v5.53l3.1-1.21v10.14H0V48h48v-1.55h-3.1V36.31zm-1.55-4.47v2.21l-12.39-4.82v-2.21zM20.13 6.19V4.64h3.1V1.55h1.55v3.1h3.1v1.55h-3.1v7.74h-1.55V6.19zm-6.97 15.15 9.76-5.86h2.15l9.76 5.86v2.06L24 16.9l-10.84 6.5zM24 18.71l8.52 5.11v22.63h-3.1V36.39c0-2.99-2.43-5.42-5.42-5.42s-5.42 2.43-5.42 5.42v10.06h-3.1V23.82zm-.77 27.74h-3.1V36.39a3.88 3.88 0 013.1-3.79zm1.55-13.86a3.88 3.88 0 013.1 3.79v10.06h-3.1zm-23.23.45 12.39-4.82v2.21L1.55 35.26zm3.1 2.67 9.29-3.61v14.35h-1.55V38.71H6.19v7.74H4.64zm6.19 10.74H7.74v-6.19h3.1zm29.42 0h-3.1v-6.19h3.1zm3.1 0h-1.55V38.71h-6.19v7.74h-1.55V32.1l9.29 3.61z"/>
</svg>
